X:165
T:Countess of Sutherland’s Reel TS.165
M:C|
L:1/8
Q:1/2=80
S:Thomas Sands’ MS,1810,Lincolnshire
R:reel
N:Another version of the tune in C is TS.219
O:England;Lincolnshire
Z:vmp.Ruairidh Greig, 2011
K:Bb
d|B2 FB GBFB|EBDB Cccd|B2FB Ggfe|dfce dBB:|
|:f/g//a//|bgdg egce|dfBd cFF f/g//a//|bfdf egce|dfce dBB f/g//a//|
bfdf egce|dfBd cFFf|g>fga bgfe|dfce dBB|]

